!!!COM: Beethoven, Ludwig van
!!!CDT: 1770///-1827///
!!!OTL: Six Variations on a Swiss Song
!!!OMV: Variation 6
!!!OMD: Con fuoco
!!!OPS: WO 64
!!!ODT: ~1791///
!!!AGN: Variations
**kern	**dynam	**kern	**dynam
*Ipiano	*Ipiano	*Ipiano	*Ipiano
*clefF4	*clefF4	*clefG2	*clefG2
*k[b-]	*k[b-]	*k[b-]	*k[b-]
*met(C)	*met(C)	*met(C)	*met(C)
*M4/4	*M4/4	*M4/4	*M4/4
*MM126	*MM126	*MM126	*MM126
4CC'/ 4C'/	.	4c'/	.
=75	=75	=75	=75
4FF'/ 4F'/	.	4f'/	.
4GG'/ 4G'/	.	4g'/	.
4AA'/ 4A'/	.	4a'/	.
4FF'/ 4F'/	.	4f'/	.
=76	=76	=76	=76
4C'\ 4c'\	.	8cc'\L	.
.	.	(16bb-\L	.
.	.	16gg\JJ	.
4r	.	16ff\LL	.
.	.	16ee\	.
.	.	16dd\	.
.	.	16cc\JJ	.
2C\ 2E\	.	16b-/LL	.
.	.	16a/	.
.	.	16g/	.
.	.	16f/JJ	.
.	.	16e/LL	.
.	.	16d/	.
.	.	16c/	.
.	.	16B-/JJ	.
=77	=77	=77	=77
4FF/ 4F/	.	16A/LL	.
.	.	16f/	.
.	.	16c/	.
.	.	16A/JJ)	.
(16F/LL	.	4r	.
16C/	.	.	.
16AA/	.	.	.
16C/JJ)	.	.	.
4FF'/	.	4r	.
4r	.	4c'/ 4cc'/	ff
=78	=78	=78	=78
4CC'/ 4C'/	.	4c'/ 4cc'/	.
4DD'/ 4D'/	.	4d'/ 4dd'/	.
4EE'/ 4E'/	.	4e'/ 4ee'/	.
4CC'/ 4C'/	.	4c'/ 4cc'/	.
=79	=79	=79	=79
4FF'/ 4F'/	.	8f'\ 8ff'\	.
.	.	(16aa\LL	.
.	.	16ff\JJ	.
4r	.	16ee\LL	.
.	.	16dd\	.
.	.	16cc\	.
.	.	16b\JJ	.
2GG/ 2F/	.	16a/LL	.
.	.	16g/	.
.	.	16f/	.
.	.	16e/JJ	.
.	.	16d/LL	.
.	.	16c/	.
.	.	16B/	.
.	.	16d/JJ	.
=80	=80	=80	=80
4C\ 4E\	.	16c/LL	.
.	.	16e/	.
.	.	16c/)	.
.	.	16G/JJ	.
*^	*	*	*
4E/	(16C\LL	.	4r	.
.	16GG\	.	.	.
.	16EE\	.	.	.
.	16GG\JJ	.	.	.
*v	*v	*	*	*
4CC'/)	.	2r	.
4C'\ 4c'\	.	.	.
=81	=81	=81	=81
4F'\ 4f'\	.	4r	.
4E'\ 4e'\	.	(4cc\	.
4D'\ 4d'\	.	4ff'\	.
4C'\ 4c'\	.	4ee'\	.
=82	=82	=82	=82
4F'\ 4f'\	.	4dd'\	.
4E'\ 4e'\	.	(4cc\	.
4D'\ 4d'\	.	[4ff'\	.
4C'/	.	16ff\LL])	.
.	.	16ee\	.
.	.	16dd\	.
.	.	16cc\JJ)	.
=83	=83	=83	=83
4FF'/ 4F'/	.	(16dd\LL	.
.	.	16cc\	.
.	.	16b-\	.
.	.	16a\JJ)	.
4GG'/ 4G'/	.	(16cc\LL	.
.	.	16b-\	.
.	.	16dd\	.
.	.	16b-\JJ	.
4AA'\ 4A'\	.	(16b-\LL)	.
.	.	16a\	.
.	.	16cc\	.
.	.	16a\JJ)	.
4BB-'\ 4B-'\	.	(16a/LL	.
.	.	16g/	.
.	.	16b-/	.
.	.	16g/JJ)	.
=84	=84	=84	=84
2C'\ (2c'\	.	(8f'/L	.
*	*	*^	*
.	.	4.ryy	8g'/	.
.	.	.	8a'/	.
.	.	.	8b-'/J	.
2C'\ 2G'\)	.	2b-\	(4cc/)	p
.	.	.	8dd/L)	.
.	.	.	8ee/J	.
*	*	*v	*v	*
=85	=85	=85	=85
(8F'\L	.	4a\ 4ff\	.
8G'\	.	.	.
*	*	*^	*
8A'\	.	4ryy	4r	.
8B-'\J)	.	.	.	.
(4c\	.	2b-/ (2cc/	4r	.
8d'\)	.	.	8r	.
8r	.	.	8e\	.
=86	=86	=86	=86	=86
(8FF'/L	.	4a/)	4f\	.
8GG'/	.	.	.	.
*	*	*v	*v	*
8AA'/	.	4r	.
8BB-'/J)	.	.	.
*	*	*^	*
(4C/	.	(2c/	2B-\	.
8D'\L)	.	.	.	.
8E'\J	.	.	.	.
=87	=87	=87	=87	=87
4FF/ 4F/	.	4A/)	4A\	pp
*	*	*v	*v	*
4r	.	4r	.
4r;	.	4r;	.
==	==	==	==
*-	*-	*-	*-
!!!ENC: Craig Stuart Sapp
!!!END: 2004/06/07/
